X:1
T:Charming Kat:y's -- Reel
R:reel
B:Ryan's Mammoth Collection
Z:Contributed by Ray Davies,  ray:davies99.freeserve.co.uk
M:2/4
L:1/16
K:A
uE2|\
A2ce  a2gf | ecdB  cAFA    | E2(AB)  cAaf      | ecAc (BA)(FB) |
A2ce  a2cf | ecdB  cAFA    | E2(AB)  cAaf      | ecBc  A2     ::
u(Ad)|\
f2fg  a2af | efec (dc)(BA) | (Ac)(ec) (Ad)(fd) | efec  dcBA    |
A,CEA CEAc | EAce Acea     |  ebaf     edcB    | c2A2A2       :|
